X:967
T:Mother's Delight
R:reel
H:Donegal version, played by John Doherty, Paul O'Shaughnessy etc.
H:See also #82
Z:id:hn-reel-967
M:C|
L:1/8
K:Gmix
Bdgd BGGB | Acfc AFFc | Bdgd BGGB | A2D^F AGGc |
Bdgd BGGB | Acfc AFFc | _B2BA Bd=fd | cA^FG AGGA :|
|: _B2BA B2GA | _BABd cBAB | Ggga g^fga | =bga^f defd |
g2^fa gfde | =fdc_B A=FFA | Gg~g2 dg=bg | ^fdcA =BGGA :|
P:variations
|: Bdgd BGGB | Acfc AFFA | Bdgd BGGB | A2D^F AGGA |
Bdgd BGGB | Acfc AFGA | _B2BA Bg=fd | cA^FG AGGA :|
|: _B2BA B2GA | ~_B3d cBAB | Ggg^f ~g3a | =bga^f defd |
g2^fa gfde | =fdc_B A=FFA | Gg~g2 dg=bg | ^fdcA =BGGA :|

